X:1
T: Menuett från Skallsjö
M: 3/4
R: Menuett
O: Västergötland
Z: ABC-transkribering av Linus Fredin
L: 1/8
K:D
e|: e2/f/^g/ a>a b/2a| ^g2/e/g/ f2/d/f/ ed | c/d/e/f/ g(3a/g/f/ gf | d>2e f2/a/^g/ e2 |
e2/f/^g/ a>a b2/a|^g2/e/g/ f2/d/f/ ed | c/d/e/f/ g(3a/g/f/ gf| d2/f/d/ e4 :|
|:e(3e/f/e/ d2/d/e/ c2/e/c/ |d/c/d/e/ f/e/f/g/ a/b/a/g/  |e(3e/f/e/ d2/d/e/ c2/e/c/|d/c/d/e/ f/e/f/g/ aa  |
a/b/a/g/ e(3e/f/e/ de|cd e/f/e/f/ d2:|

